!!!!SEGMENT: pl-lzu--m-15111--001-048_noskowski-zygmunt--spiewnik-dla-dzieci-op-34-48-na-pastwisku.krn
!!!cenid: 18xx:4745
!!!COM: Noskowski, Zygmunt
!!!COM-rismID: pe106604
!!!CDT: 1846/05/02-1909/07/23
!!!CNT: Polish
!!!GTL: Śpiewnik dla dzieci, op. 34
!!!OTL: 48. Na pastwisku
!!!OMV: 048
!!!PDT: 1890
!!!AGN: Secular; Song; Children
!!!YEC: Copyright 2022 Narodowy Instytut Fryderyka Chopina (https://polishscores.org)
!!!YEM: License CC-BY-4.0 (https://creativecommons.org/licenses/by/4.0)
!!!SMS-siglum: PL-LŹu
!!!SMS-shelfmark: M 15111
!!!SMS-variant:
!!!SMS-altvar:
!!!SMS-shelfwork: 001-048 G
!!!NIFC-rismSourceID: 1001234040
!!!NIFC-rismChildID: 1001234040
!!!NIFC-islandoraID: pl-lzu:5455
!!!URL-pdf-islandora: https://repozytorium.nifc.pl/islandora/object/pl-lzu%3A5455/datastream/PDF/view
!!!URL-scan: https://polish.musicsources.pl/pl/lokalizacje/galeria/druki-muzyczne/23228/59 @EN{Scan on Polish Music Sources Website} @PL{Skany w portalu Dziedzictwo Muzyki Polskiej w otwartym dostępie}
!!!IIIF:
!!!ONB-nifc:
!!!AIN: 1 canto 1 piano
!!!key: a
**kern	**kern	**dynam	**kern	**text	**dynam
*part2	*part2	*part2	*part1	*part1	*part1
*staff3	*staff2	*staff2/3	*staff1	*staff1	*
*ICklav	*ICklav	*	*ICvox	*	*
*Ipiano	*Ipiano	*	*Icanto	*	*
*I"[Pianoforte]	*I"[Pianoforte]	*	*I"[Voce]	*	*
*clefF4	*clefG2	*	*clefG2	*	*
*k[]	*k[]	*	*k[]	*	*
*a:	*a:	*	*a:	*	*
*M3/4	*M3/4	*	*M3/4	*	*
=1	=1	=1	=1	=1	=1
!	!LO:TX:a:i:t=Cokolwiek żwawo.	!LO:DY:rj	!LO:TX:a:B:t=Allegretto.	!	!
4E 4AA/	2.r	p	2.r	.	.
4E 4AA/	.	.	.	.	.
4E 4AA/	.	.	.	.	.
=2	=2	=2	=2	=2	=2
4E 4AA/	2e 2c/	<[	2.r	.	.
4E 4AA/	.	.	.	.	.
4E 4AA/	4e 4c/	.	.	.	.
=3	=3	=3	=3	=3	=3
!	!	!	!	!	!LO:DY:a
4E 4AA/	4e 4c/	mf	8e 8c/	Si-	mf
.	.	.	8ee 8cc\	-ny	.
4E 4AA/	4ee 4cc\	.	4ee 4cc\	dym	.
4E 4AA/	4dd 4b\	.	4dd 4b\	się	.
=4	=4	=4	=4	=4	=4
4E 4AA/	4cc 4a/	.	4cc 4a/	wi-	.
4E 4AA/	4b 4e/	.	4b 4e/,	-je	.
4E 4AA/	4b 4e/	.	4b 4e/	Pod	.
=5	=5	=5	=5	=5	=5
*	*	*	*^	*	*
4E 4AA/	(8aL 8f/	.	(8aL 8f/	2ryy	la-	.
.	8bJ 8g/	.	8bJ 8g/)	.	.	.
4E 4AA/	4cc 4a/)	.	4cc 4a/	.	-sem	.
4E 4AA/	(8aL 8f/	.	(8a/L	4f\	da-	.
.	8b/J)	.	8b/J)	.	.	.
*	*	*	*v	*v	*	*
!!LO:LB:g=original
=6	=6	=6	=6	=6	=6
4E 4AA/	2cc 2e/	.	2cc 2e/	-le-	.
4E 4AA/	.	.	.	.	.
4E 4AA/	4a 4c/	.	4a 4c,/	-ko,	.
=7	=7	=7	=7	=7	=7
4E 4AA/	8eL 8d/	.	8e 8d/	Tam	.
.	8bJ 8d/	.	8b 8d/	pa-	.
4E 4AA/	4b 4d/	.	4b 4d/	-stu-	.
4E 4AA/	4cc 4e/	.	4cc 4e/	-szki	.
=8	=8	=8	=8	=8	=8
4E 4AA/	(8bL 8d/	.	8b 8d/	o-	.
.	8aJ 8c/)	.	8a 8c/	-gnie	.
4E 4AA/	4a 4c/	.	4a 4c/	pa-	.
4E 4AA/	4e 4c/	.	4e 4c,/	-lą	.
=9	=9	=9	=9	=9	=9
4E 4AA/	8eL 8d/	.	8e 8d/	I	.
.	8bJ 8d/	.	8b 8d/	kar-	.
4E 4AA/	4b 4d/	.	4b 4d/	-to-	.
4E 4AA/	4cc 4e/	.	4cc 4e/	-fle	.
=10	=10	=10	=10	=10	=10
4E 4AA/	4a 4c/	.	4a 4c/	pie-	.
4E 4AA/	4a 4c/	.	4a 4c/	-ką.	.
4r	4r	.	4r	.	.
!!LO:LB:g=original
=11	=11	=11	=11	=11	=11
4E 4EE/	4g 4e/	.	4g 4e/	A	.
4E 4EE/	4.b 4.g^/	.	4.b 4.g^>/	Żu-	.
4E 4AA/	.	.	.	.	.
.	8a 8f#X/	.	8a 8f#X/	-czek	.
=12	=12	=12	=12	=12	=12
4E 4EE/	4g 4e/	.	4g 4e/	wa-	.
4E 4EE/	4.b 4.g^/	.	4.b 4.g^>/	-ru-	.
4E 4AA/	.	.	.	.	.
.	8a 8f#X/	.	8a 8f#X/	-je,	.
=13	=13	=13	=13	=13	=13
4E\	8gL 8e/	.	8g 8e/	Ła-	.
.	8gJ 8e/	.	8g 8e/	-py	.
4c 4E\	4a 4f#X/	.	4a 4f#X/	so-	.
4F#X 4E\	4cc 4a/	.	4cc 4a/	-bie	.
=14	=14	=14	=14	=14	=14
4G 4E\	4b 4g/	.	4b 4g/	grze-	.
4B\	4g 4e/	.	4g 4e/	-je,	.
4E\	4r	.	4r	.	.
!!LO:PB:g=original
=15	=15	=15	=15	=15	=15
4G\	4g 4fn/	.	8g 8fn/	Krów-	.
.	.	.	8g 8f/	-ki	.
4G 4BB\	4.dd 4.f^/	.	4.dd 4.f^>/	ry-	.
4G 4C\	.	.	.	.	.
.	8cc 8e/	.	8cc 8e/	-czą,	.
=16	=16	=16	=16	=16	=16
4G 4D\	4b 4d/	.	8b 8d/	po-	.
.	.	.	8b 8d/	-ry-	.
4G 4BB\	4.dd 4.f^/	.	4.dd 4.f^>/	-ku-	.
4G 4C\	.	.	.	.	.
.	8cc 8e/	.	8cc 8e/	-ją,	.
=17	=17	=17	=17	=17	=17
*	*	*	*^	*	*
4G 4F\	(8bL 8d/	.	8b 8d/	2ryy	Do-	.
.	8a/J)	.	8a 8d/	.	-brze	.
4GG/	4g 4f/	.	4g 4f/	.	im	.
4G 4GG/	(8aL 8f/	.	(8a/L	4f\	się	.
.	8b/J)	.	8b/J)	.	.	.
=18	=18	=18	=18	=18	=18	=18
4G 4C\	4cc 4e/	.	4cc 4e/	4ryy	dzie-	.
4C/	4c/	.	4c/	4c\	-je.	.
4r	4r	.	4r	4ryy	.	.
*	*	*	*v	*v	*	*
!!LO:LB:g=original
=19	=19	=19	=19	=19	=19
!	!	!LO:DY:rj	!	!	!
(<8C/L	(8c/L	p	2.r	.	.
8D/J	8d/J	.	.	.	.
4E\)	4e/)	.	.	.	.
(8G^\L	(8g^/L	.	.	.	.
8F\J)	8f/J)	.	.	.	.
=20	=20	=20	=20	=20	=20
(8E\L	(8e/L	.	2.r	.	.
8D\J	8d/J	.	.	.	.
4E\)	4e/)	.	.	.	.
(8G^\L	(8g^/L	.	.	.	.
8F\J)	8f/J)	.	.	.	.
=21	=21	=21	=21	=21	=21
!	!	!LO:HP:t=crescendo	!	!	!
(8E\L	(8e/L	<	2.r	.	.
8F\J	8f/J	.	.	.	.
4E\)	4e/)	.	.	.	.
(8F^\L	(8f^/L	.	.	.	.
8E\J	8e/J	.	.	.	.
=22	=22	=22	=22	=22	=22
4F\)	4f/)	.	2.r	.	.
(8E^\L	(8e^/L	.	.	.	.
8F\J	8f/J	.	.	.	.
4E\)	4e/)	.	.	.	.
!!LO:LB:g=original
=23	=23	=23	=23	=23	=23
!	!	!LO:DY:rj	!	!	!LO:DY:a:rj
4E 4AA/	4e 4c/	mf	8e 8c/	A	mf
.	.	.	8ee 8cc\	mój	.
4F#X 4AA/	4ee 4cc\	.	4ee 4cc\	Żucz-	.
4G#X 4AA/	4dd 4b\	.	4dd 4b\	-ku	.
=24	=24	=24	=24	=24	=24
4A 4AA/	4cc 4a/	.	4cc 4a/	mi-	.
4G#X 4AA/	4b 4e/	.	4b 4e/,	-ły;	.
4E 4AA/	4b 4e/	.	4b 4e/	Ob-	.
=25	=25	=25	=25	=25	=25
*	*	*	*^	*	*
4E 4AA/	(8aL 8f/	.	(8aL 8f/	2ryy	-szcze-	.
.	8bJ 8g/	.	8bJ 8g/)	.	.	.
4E 4AA/	4cc 4a/)	.	4cc 4a/	.	-kuj	.
4E 4AA/	(8aL 8f/	.	(8a/L	4f\	od	.
.	8b/J)	.	8b/J)	.	.	.
*	*	*	*v	*v	*	*
=26	=26	=26	=26	=26	=26
4E 4AA/	2cc 2e/	.	2cc 2e/	szko-	.
4E 4AA/	.	.	.	.	.
4E 4AA/	4a 4c/	.	4a 4c/	-dy,	.
!!LO:PB:g=original
=27	=27	=27	=27	=27	=27
4E 4GG#X/	8eL 8d/	.	8e 8d/	Bo	.
.	8bJ 8d/	.	8b 8d/	jak	.
4E 4GG#/	4b 4d/	.	4b 4d/	wyj-	.
4E 4EE/	4cc 4e/	.	4cc 4e/	-dzie	.
=28	=28	=28	=28	=28	=28
4E 4AA/	(8bL 8d/	.	8b 8d/	pan	.
.	8aJ 8c/)	.	8a 8c/	e-	.
4E 4AA/	4a 4c/	.	4a 4c/	-ko-	.
4E 4AA/	4e 4c/	.	4e 4c/,	-nom,	.
=29	=29	=29	=29	=29	=29
4E 4GG#X/	8eL 8d/	.	8e 8d/	Bę-	.
.	8bJ 8d/	.	8b 8d/	-dąż	.
4E 4FF#X/	4b 4d/	.	4b 4d/	to-	.
4E 4EE/	4cc 4e/	.	4cc 4e/	-bie	.
=30	=30	=30	=30	=30	=30
4A 4AA\	4a 4c/	.	4a 4c/	go-	.
4GnX 4AA\	4a 4c/	.	4a 4c/	-dy.	.
4FnX 4AA\	4r	.	4r,	.	.
!!LO:LB:g=original
=31	=31	=31	=31	=31	=31
4E 4AA/	(8eL 8d/	.	8e 8d/	Bo	.
.	8b/J)	.	8b 8d/	jak	.
4E 4GG#X/	4b 4d/	.	4b 4d/	wyj-	.
4E 4EE/	4cc 4e/	.	4cc 4e/	-dzie	.
=32	=32	=32	=32	=32	=32
4E 4AA/	(8bL 8d/	.	8b 8d/	pan	.
.	8aJ 8c/)	.	8a 8c/	e-	.
4E 4AA/	4a 4c/	.	4a 4c/	-ko-	.
4E 4AA/	4e 4c/	.	4e 4c/	-nom,	.
=33	=33	=33	=33	=33	=33
4E 4EE/	(8eL 8d/	.	8e 8d/	Bę-	.
.	8b/J)	.	8b 8d/	-dąż	.
4E 4EE/	4.dd 4.f/	.	4.dd 4.f^>/	to-	.
4E 4EE/	.	.	.	.	.
.	8cc 8e/	.	8cc 8e/	-bie	.
=34	=34	=34	=34	=34	=34
4E 4AA/	4b 4d/	.	4b 4d/	go-	.
4E 4AA^/	4a 4c^/	.	4a 4c/	-dy.	.
4r	4r	.	4r	.	.
==	==	==	==	==	==
*-	*-	*-	*-	*-	*-
!!!system-decoration: s1{s2,s3}
!!!RDF**kern: > = above
!!!RDF**kern: < = below
!!!RDF**kern: N = linked
!!!ENC: Filip Voros
!!!EED: Katarzyna Serwa
!!!END: 2025-03-07
!!!EEV: 2025-03-25
